X:387
T:Largo's fairy dance
T:Fairy dance
T:The fairy reel
R:Reel
O:Scotland
C:Niel Gow
D:Paddy Moloney & Sean Potts: Tin Whistles.
B:1 Kerr's First p 10
S:1 Darsie's web page? pretty close to Kerr's vsn...
Z:1 Transcription:Mike Long?, Chords:Mike Long
S:2 hnreel~1.abc
Z:2 Transcription, chords:Mike Long
M:C|
L:1/8
K:D
"D"f2fd f2fd|"D"f2fd "A"cdeg|"D"f2fd "G"gfed|\
[1 "A"cABc "(G)"dcde:|[2 "A"cABc "(G)"defg|]
|:"D"a2af "G"b2ba|"G"gfge "A"a2ag|"D"fefa "G"gfed|\
[1 "A"cABc "(G)"defg:|[2 "A"cABc "(G)"dcde|]
P:"The fairy reel"
K:G
"G"BcBA GBdB|"C"cBAG "D"FGAc|"G"BG~G2 "C"cBAG|\
"D"fgaf gedc|"G"BcBA GBdB|"C"cBAG "D"FGAc|
"G"BG~G2 "C"cBAG|[1 "D"FGAF "G"G3B:|\
[2 "D"FGAF "G"G2Bc|:"G"d2dB "C"e2ed|"C"cBcA "D"d2dc|"G"BGBd "C"cBAG|
"D"fgaf gedc|"G"d2dB "C"e2ed|"C"cBcA "D"d2dc|\
"G"BGBd "C"cBAG|[1 "D"FGAF "G"G2Bc:|[2 "D"FGAF "G"G3B|]
